assets/img/index__slide3-1.svg

<svg xmlns="http://www.w3.org/2000/svg" viewBox="0 0 66 66" enable-background="new 0 0 66 66"><style type="text/css">.st0{fill:#262626;}</style><path class="st0" d="M56.4 14.2h-11.6v-4.3c0-2.9-2.3-5.2-5.2-5.2h-12.6c-2.9 0-5.2 2.3-5.2 5.2v4.3h-11.6c-4 0-7.3 3.3-7.3 7.3v16.8c0 1.7.8 3.2 2.1 4.2v11.5c0 4 3.3 7.3 7.3 7.3h42c4 0 7.3-3.3 7.3-7.3v-11.6c1.3-.9 2.1-2.5 2.1-4.2v-16.7c0-4.1-3.3-7.3-7.3-7.3zm-32.6-4.3c0-1.8 1.4-3.2 3.2-3.2h12.6c1.8 0 3.2 1.4 3.2 3.2v4.3h-2.2v-4.3c0-.5-.4-1-1-1h-12.6c-.5 0-1 .4-1 1v4.3h-2.2v-4.3zm4.2 4.3v-3.3h10.6v3.3h-10.6zm31.6 39.8c0 2.9-2.4 5.3-5.3 5.3h-42c-2.9 0-5.3-2.4-5.3-5.3v-10.7c.4.1.7.1 1.1.1h5.3v1.1c0 1.7 1.4 3.1 3.1 3.1h2.1c1.7 0 3.1-1.4 3.1-3.1v-1.1h23.2v1.1c0 1.7 1.4 3.1 3.1 3.1h2.1c1.7 0 3.1-1.4 3.1-3.1v-1.1h5.3c.4 0 .8 0 1.1-.1v10.7zm-39.9-12.5h-4.3v-1.1c0-.6.5-1.1 1.1-1.1h2.1c.6 0 1.1.5 1.1 1.1v1.1zm0 1.9v1.1c0 .6-.5 1.1-1.1 1.1h-2.1c-.6 0-1.1-.5-1.1-1.1v-1.1h4.3zm31.5-1.9h-4.3v-1.1c0-.6.5-1.1 1.1-1.1h2.1c.6 0 1.1.5 1.1 1.1v1.1zm0 1.9v1.1c0 .6-.5 1.1-1.1 1.1h-2.1c-.6 0-1.1-.5-1.1-1.1v-1.1h4.3zm10.5-5.2c0 1.8-1.4 3.2-3.2 3.2h-5.3v-1.1c0-1.7-1.4-3.1-3.1-3.1h-2.1c-1.7 0-3.1 1.4-3.1 3.1v1.1h-23.2v-1.1c0-1.7-1.4-3.1-3.1-3.1h-2.1c-1.7 0-3.1 1.4-3.1 3.1v1.1h-5.3c-1.8 0-3.2-1.4-3.2-3.2v-16.7c0-2.9 2.4-5.3 5.3-5.3h46.2c2.9 0 5.3 2.4 5.3 5.3v16.7zm0 0"/></svg>

<?xml version="1.0" encoding="utf-8"?>
<!-- Generator: Adobe Illustrator 19.2.0, SVG Export Plug-In . SVG Version: 6.00 Build 0)  -->
<svg version="1.1" id="Layer_1" xmlns="http://www.w3.org/2000/svg" xmlns:xlink="http://www.w3.org/1999/xlink" x="0px" y="0px"
	 viewBox="0 0 66 66" style="enable-background:new 0 0 66 66;" xml:space="preserve">
<style type="text/css">
	.st0{fill:#262626;}
</style>
<g>
	<path class="st0" d="M56.4,14.2H44.8V9.9c0-2.9-2.3-5.2-5.2-5.2H27c-2.9,0-5.2,2.3-5.2,5.2v4.3H10.2c-4,0-7.3,3.3-7.3,7.3v16.8
		c0,1.7,0.8,3.2,2.1,4.2c0,0,0,0,0,0V54c0,4,3.3,7.3,7.3,7.3h42c4,0,7.3-3.3,7.3-7.3V42.4c0,0,0,0,0,0c1.3-0.9,2.1-2.5,2.1-4.2V21.5
		C63.7,17.4,60.4,14.2,56.4,14.2L56.4,14.2z M23.8,9.9c0-1.8,1.4-3.2,3.2-3.2h12.6c1.8,0,3.2,1.4,3.2,3.2v4.3h-2.2V9.9
		c0-0.5-0.4-1-1-1H27c-0.5,0-1,0.4-1,1v4.3h-2.2V9.9z M28,14.2v-3.3h10.6v3.3H28z M59.6,54c0,2.9-2.4,5.3-5.3,5.3h-42
		C9.4,59.3,7,56.9,7,54V43.3c0.4,0.1,0.7,0.1,1.1,0.1h5.3v1.1c0,1.7,1.4,3.1,3.1,3.1h2.1c1.7,0,3.1-1.4,3.1-3.1v-1.1h23.2v1.1
		c0,1.7,1.4,3.1,3.1,3.1h2.1c1.7,0,3.1-1.4,3.1-3.1v-1.1h5.3c0.4,0,0.8,0,1.1-0.1V54z M19.7,41.5h-4.3v-1.1c0-0.6,0.5-1.1,1.1-1.1
		h2.1c0.6,0,1.1,0.5,1.1,1.1V41.5z M19.7,43.4v1.1c0,0.6-0.5,1.1-1.1,1.1h-2.1c-0.6,0-1.1-0.5-1.1-1.1v-1.1H19.7z M51.2,41.5h-4.3
		v-1.1c0-0.6,0.5-1.1,1.1-1.1h2.1c0.6,0,1.1,0.5,1.1,1.1V41.5z M51.2,43.4v1.1c0,0.6-0.5,1.1-1.1,1.1H48c-0.6,0-1.1-0.5-1.1-1.1
		v-1.1H51.2z M61.7,38.2c0,1.8-1.4,3.2-3.2,3.2h-5.3v-1.1c0-1.7-1.4-3.1-3.1-3.1H48c-1.7,0-3.1,1.4-3.1,3.1v1.1H21.7v-1.1
		c0-1.7-1.4-3.1-3.1-3.1h-2.1c-1.7,0-3.1,1.4-3.1,3.1v1.1H8.1c-1.8,0-3.2-1.4-3.2-3.2V21.5c0-2.9,2.4-5.3,5.3-5.3h46.2
		c2.9,0,5.3,2.4,5.3,5.3V38.2z M61.7,38.2"/>
</g>
</svg>
